X:8343
T:Jungfrauenaufwecken
C:Trad.
B:H.Broer, Ein Jahr geht ber die Berge, S. 240 f.
I:160
M:3/4
L:1/8
K:G
[GB][Ac] | [Bd][ce][Bd][Ac][GB][Ac] | [Bd][ce][Bd][Ac][GB][Ac] | [B2d2] z [Bd] [B2g2] | [G2G2] z2 :|
|: [G2B2] | [D2A2] [DA][DA][DA][DA] | [D2A2] [B2d2] [A2c2] | [GB][FA][GB][Ac][Bd][GB] | [G2G2] "D.C."z2 :|
